visuals/blocks/b0135.svg

<svg width="30" height="30" xmlns="http://www.w3.org/2000/svg" preserveAspectRatio="none" version="1.1">

 <g>
  <title>Layer 1</title>
  <path id="svg_1" d="m0,0l0,30l30,0l0,-30l-30,0z" fill="#d112a1"/>
  <path id="svg_2" d="m25,30l5,-5l0,-5l-10,10l5,0m-5,-30l-20,20l0,5l25,-25l-5,0m-10,0l-10,10l0,5l15,-15l-5,0m-10,5l5,-5l-5,0l0,5m30,10l0.52253,-6.5676l-20.52253,21.5676l5,0l15,-15m0,-10l0,-5l-30,30l5,0l25,-25z" fill="#910d88"/>
 </g>
</svg>

<svg xmlns="http://www.w3.org/2000/svg" version="1.1" xmlns:xlink="http://www.w3.org/1999/xlink" preserveAspectRatio="none" x="0px" y="0px" width="30px" height="30px" viewBox="0 0 30 30">
<path fill="#D112A1" stroke="none" d="
M 0 0
L 0 30 30 30 30 0 Z"/>
<path fill="#910D88" stroke="none" d="
M 25 30
L 30 25 30 20 20 30 25 30
M 20 0
L 0 20 0 25 25 0 20 0
M 10 0
L 0 10 0 15 15 0 10 0
M 0 5
L 5 0 0 0 0 5
M 30 15
L 30 10 10 30 15 30 30 15
M 30 5
L 30 0 0 30 5 30 30 5 Z"/>
</svg>
